public/arrow_vertical.svg

<svg fill="none" height="49" viewBox="0 0 15 49" width="15" xmlns="http://www.w3.org/2000/svg"><path d="m6.79289 48.7071c.39053.3905 1.02369.3905 1.41422 0l6.36399-6.364c.3905-.3905.3905-1.0236 0-1.4142-.3906-.3905-1.0237-.3905-1.4142 0l-5.6569 5.6569-5.65685-5.6569c-.39053-.3905-1.023693-.3905-1.414218 0-.3905242.3906-.3905242 1.0237 0 1.4142zm-.29289-48.7071v48h2v-48z" fill="#6883cc" fill-opacity=".3"/></svg>

<svg width="15" height="49" viewBox="0 0 15 49" fill="none" xmlns="http://www.w3.org/2000/svg">
<path d="M6.79289 48.7071C7.18342 49.0976 7.81658 49.0976 8.20711 48.7071L14.5711 42.3431C14.9616 41.9526 14.9616 41.3195 14.5711 40.9289C14.1805 40.5384 13.5474 40.5384 13.1569 40.9289L7.5 46.5858L1.84315 40.9289C1.45262 40.5384 0.819457 40.5384 0.428932 40.9289C0.0384078 41.3195 0.0384078 41.9526 0.428932 42.3431L6.79289 48.7071ZM6.5 0L6.5 48H8.5L8.5 0L6.5 0Z" fill="#6883CC" fill-opacity="0.3"/>
</svg>
